X: 1843
T: Argosy, The
R: reel
M: 4/4
K: Eminor
|:"Em"Beed "Em"edBA|"D"FADA "D"FAdA|"Em"Eeed "Em"edBA|"D"DEFA "Em"FEE/E/E|
"Em"Beed "Em"edBA|"D"FAde "D"fdef|"Em"g/g/ggf "Em"edBA|"D"FADE "Em"FEE/E/E:|
|:"Em"e/e/eGe "A"Ae^ce|"D"defg "D"adfd|"Em"e/e/eGe "Em"BeAe|"D"Fdd^c "D"defd|
"Em"e/e/eGe "Em"Be^ce|"D"defg "D"adfa|"Em"gBeg "Bm"fedB|"D"ABde "D"fafd|
"Em"e/e/eGe "A"Ae^ce|"D"defg "D"adfd|"Em"e/e/eGe "Em"BeAe|"D"Fdd^c "D"defd|
"Em"e/e/eGe "Em"Be^ce|"D"defg "D"adfa|"Em"gBeg "Bm"fedB|"D"AFDF "Em"EFGA||

